X: 25287
T: Man Of The House, The
R: reel
M: 4/4
K: Eminor
E2 BE GABG|E2 BE FDAD|E2 BE GABc|dBcA BEED|
E2 BE GABG|E2 BE FDAD|E2 BE GABc|dBcA BE E2||
efge fgaf|gfed Bded|efge fgaf|gfed Be e2|
efge fgaf|gfed efga|bgaf gfed|edBA GBFB||

